icon-themes/colibre_svg/cmd/sc_slidemasterpage.svg

<svg viewBox="0 0 16 16" xmlns="http://www.w3.org/2000/svg"><path d="m1 2v11h5.7089844l.1015625-.408203c2.053886-2.052039 4.1045721-4.1063434 6.1562501-6.1367189.299669-.2993056.707497-.4550781 1.099609-.4550781.325044 0 .657562.1132637.933594.3203125v-4.3203125zm14 9.525391c-.506999.490824-1.016733.979641-1.519531 1.474609h1.519531z" fill="#fff"/><path d="m0 1v13h6.4628906l.2460938-1h-5.7089844v-11h14v4.3203125c.056994.0427507.114738.0835513.166016.1347656l.833984.8320313v-6.2871094zm2 7v1h1v-1zm2 0v1h6.414062c.334107-.3331518.667869-.6676544 1.001954-1zm-2 2v1h1v-1zm2 0v1h4.4082031c.3342578-.334086.6677893-.666268 1.0019531-1zm12 .556641c-.334731.321782-.666626.646012-1 .96875v1.474609h-1.519531c-.334243.329038-.660271.668273-.992188 1h3.511719z" fill="#4d82b8"/><g fill="#eac282"><path d="m2 4v2h12v-2z"/><path d="m11.861005 8.958496-4.1469731 4.142578-.713379 2.898926 2.8549808-.758789 4.1323233-4.158692z"/><path d="m14.065594 7c-.142171 0-.283638.05379-.392578.1625977l-1.255371 1.2524416 2.135742 2.1372067 1.283203-1.229004c.21788-.2175952.21788-.5675602 0-.7851562l-1.376953-1.3754881c-.108941-.108798-.251871-.1625977-.394043-.1625977z"/></g></svg>

<svg viewBox="0 0 16 16" xmlns="http://www.w3.org/2000/svg">
  <path
     style="fill:#ffffff"
     d="M 1 2 L 1 13 L 6.7089844 13 L 6.8105469 12.591797 C 8.8644329 10.539758 10.915119 8.4854536 12.966797 6.4550781 C 13.266466 6.1557725 13.674294 6 14.066406 6 C 14.39145 6 14.723968 6.1132637 15 6.3203125 L 15 2 L 1 2 z M 15 11.525391 C 14.493001 12.016215 13.983267 12.505032 13.480469 13 L 15 13 L 15 11.525391 z "
     />
  <path
     style="fill:#4d82b8"
     d="M 0 1 L 0 14 L 6.4628906 14 L 6.7089844 13 L 1 13 L 1 2 L 15 2 L 15 6.3203125 C 15.056994 6.3630632 15.114738 6.4038638 15.166016 6.4550781 L 16 7.2871094 L 16 1 L 0 1 z M 2 8 L 2 9 L 3 9 L 3 8 L 2 8 z M 4 8 L 4 9 L 10.414062 9 C 10.748169 8.6668482 11.081931 8.3323456 11.416016 8 L 4 8 z M 2 10 L 2 11 L 3 11 L 3 10 L 2 10 z M 4 10 L 4 11 L 8.4082031 11 C 8.7424609 10.665914 9.0759924 10.333732 9.4101562 10 L 4 10 z M 16 10.556641 C 15.665269 10.878423 15.333374 11.202653 15 11.525391 L 15 13 L 13.480469 13 C 13.146226 13.329038 12.820198 13.668273 12.488281 14 L 16 14 L 16 10.556641 z "
     />
  <path
     style="fill:#eac282"
     d="M 2,4 V 6 H 14 V 4 Z"
     />
  <g
     fill="#eac282"
     >
    <path
       d="m11.861005 8.958496-4.1469731 4.142578-.713379 2.898926 2.8549808-.758789 4.1323233-4.158692z"
       />
    <path
       d="m14.065594 7c-.142171 0-.283638.05379-.392578.1625977l-1.255371 1.2524416 2.135742 2.1372067 1.283203-1.229004c.21788-.2175952.21788-.5675602 0-.7851562l-1.376953-1.3754881c-.108941-.108798-.251871-.1625977-.394043-.1625977z"
       />
  </g>
</svg>
